packages/tokens/icons/cartNew/size32Px.svg

<svg viewBox="0 0 32 32" fill="none" xmlns="http://www.w3.org/2000/svg" width="1em" height="1em"><circle cx="10" cy="26" r="1.5" stroke="currentColor"/><circle cx="23" cy="26" r="1.5" stroke="currentColor"/><path d="M6.5 8.5L27.2472 8.5C27.8889 8.5 28.3646 9.09586 28.2224 9.72162L26.3538 17.9432C26.1469 18.8538 25.3373 19.5 24.4035 19.5L9 19.5C8.17157 19.5 7.5 20.1716 7.5 21V21C7.5 21.8284 8.17157 22.5 9 22.5L25.5 22.5" stroke="currentColor" stroke-linecap="round"/><path d="M3 6H5.5L8.5 19.5" stroke="currentColor" stroke-linecap="round" stroke-linejoin="round"/></svg>

<svg xmlns="http://www.w3.org/2000/svg" fill="none" viewBox="0 0 32 32" width="1em" height="1em"><circle cx="10" cy="26" r="1.5" stroke="currentColor"/><circle cx="23" cy="26" r="1.5" stroke="currentColor"/><path stroke="currentColor" stroke-linecap="round" d="M6.5 8.5h20.747a1 1 0 0 1 .975 1.222l-1.868 8.221a2 2 0 0 1-1.95 1.557H9A1.5 1.5 0 0 0 7.5 21v0A1.5 1.5 0 0 0 9 22.5h16.5"/><path stroke="currentColor" stroke-linecap="round" stroke-linejoin="round" d="M3 6h2.5l3 13.5"/></svg>
